!!!!SEGMENT: pl-sa--568-a-ix-48--002_anonim--mazur.krn
!!!cenid: 18xx:599
!!!COM: Anonim
!!!COM-rismID: pe30004985
!!!CDT:
!!!CNT:
!!!OTL: Mazur
!!!PDT:
!!!AGN: Secular; Mazurka
!!!SMS-siglum: PL-SA
!!!SMS-shelfmark: 568/A IX 48
!!!SMS-shelfwork: 002 W
!!!SMS-variant:
!!!SMS-altvar:
!!!NIFC-rismSourceID: 1001065490
!!!NIFC-islandoraID:
!!!URL-pdf-islandora:
!!!URL-scan: https://bc.bdsandomierz.pl/dlibra/publication/1327/edition/1295/content @EN{Scan in the Sandomierz Diocese Digital Library} @PL{Skany w portalu Cyfrowa Biblioteka Diecezjalna w Sandomierzu}
!!!ONB-nifc: Str. 2-3
!!!AIN: 1 empty 1 piano
!!!key:
**kern	**kern
*part2	*part1
*staff2	*staff1
*Iempty	*Ipiano
*	*I"Piano
*	*I'Pno.
*clefF4	*clefG2
*k[f#]	*k[f#]
*G:	*G:
*M3/8	*M3/8
*>[A,B,B,C,C,D,D,E,E,A,B,B,C,C,D,D,E,E]	*>[A,B,B,C,C,D,D,E,E,A,B,B,C,C,D,D,E,E]
=1	=1
*>A	*>A
*	*tremolo
!	!LO:TX:a:t=P:problem=wszystkie nuty mają caudy z prawej strony
!	!LO:TX:a:t=P:problem=caudy nut zapisanych dodaną linią z lewej strony
!	!LO:TX:a:t=P:problem=trzy kropki nad tremolo
!	!LO:TX:a:Bi:t=Mazur
8GL 8GG\	8dd\L
8B 8G 8D\	8dd\
8BJ 8G 8D\	8dd\J
*	*Xtremolo
=2	=2
*rep	*
8GL 8GG\	16.dd\LL
.	32ee\JJk
8B 8G 8D\	8dd\L
8BJ 8G 8D\	8dd\J
*Xrep	*
=3	=3
*	*tremolo
*rep	*
!	!LO:TX:a:t=P:problem=trzy kropki nad tremolo
8GL 8GG\	8dd\L
8B 8G 8D\	8dd\
8BJ 8G 8D\	8dd\J
*Xrep	*
*	*Xtremolo
=4	=4
*rep	*
8GL 8GG\	16.dd\LL
.	32ee\JJk
8B 8G 8D\	8dd\L
8BJ 8G 8D\	8dd\J
*Xrep	*
=5||	=5||
*>B	*>B
8DL 8DD/	8dd\L
8c 8F# 8D/	16.gg\L
.	32aa\K
8cJ 8F# 8D/	16.bb\
.	32gg\JJk
=6	=6
8DL 8DD/	16.ff#\LL
.	32dd\JJk
8B 8G 8D/	4gg 4b\
8BJ 8G 8D/	.
=7	=7
8DL 8DD/	8dd\L
8c 8F# 8D/	16.gg\L
.	32aa\K
8cJ 8F# 8D/	16.bb\
.	32ccc\JJk
!!LO:LB:g=original
=8	=8
8DL 8DD/	16.ccc#X\LL
.	32eee\JJk
8c 8F# 8D/	4ddd\
8cJ 8F# 8D/	.
=9	=9
*rep	*
8DL 8DD/	8dd\L
8c 8F# 8D/	16.ff#\L
.	32aa\K
!	!LO:TX:a:t=P:problem=W źródle nuta 16.cccn nie posiada caudy
8cJ 8F# 8D/	16.cccn\
.	32aa\JJk
*Xrep	*
=10	=10
8GL 8GG\	16.bb\LL
.	32ff#\JJk
8B 8G 8D\	8gg\L
8BJ 8G 8D\	(>16ff#\L
.	16ee\JJ)
=11	=11
8DL 8DD\	8ddss\L
8c 8F# 8D\	16ff#\L
.	16ee\
8cJ 8F# 8D\	16cc\
.	16a\JJ
=12	=12
8B 8G\	8g/
4G 4GG\	4gg\
!LO:TX:a:t=P:problem=niejednoznaczny zapis kreski taktowej [przyjęto repetycję]	!LO:TX:a:t=P:problem=niejednoznaczny zapis kreski taktowej [przyjęto repetycję]
=13:|!|:	=13:|!|:
*>C	*>C
!LO:TX:a:t=P:problem=mixed beam	!
8AAL 8AAA/	16.aa\LL
.	32bb\JJk
!LO:SIC:n=2:s=8c#:v	!
8g 8c 8A\	8aa\L
!LO:SIC:n=2:s=8c#:v	!
8gJ 8c 8A\	(>16cc#X\L
.	16ee\JJ)
!!LO:LB:g=original
=14	=14
8dL 8D\	16.dd\LL
.	32ee\JJk
8f# 8d 8A\	8dd\L
8f#J 8d 8A\	(>16ff#\L
.	16gg\JJ)
=15	=15
8AL 8AA\	16.aa\LL
.	32bb\JJk
!LO:SIC:n=2:s=8c#:v	!
8g 8c 8A\	8aa\L
!LO:SIC:n=2:s=8c#:v	!
8gJ 8c 8A\	(>16ff#\L
.	16ee\JJ)
=16	=16
*rep	*
8AL 8AA\	8a/
!LO:SIC:n=2:s=8c#:v	!LO:SIC:n=2:s=8.cc#:v
8g 8c 8A\	8.aaL 8.cc\
!LO:SIC:n=2:s=8c#:v	!
8gJ 8c 8A\	.
.	16gg\Jk
*Xrep	*
=17	=17
8F#L 8FF#/	16.ff#\LL
.	32gg\JJk
!LO:SIC:n=3:s=8A#:	!
!LO:SIC:n=2:s=8c#:v	!
8e 8c 8A 8F#/	8ff#\L
!LO:SIC:n=3:s=8A#:v	!
!LO:SIC:n=2:s=8c#:v	!
8eJ 8c 8A 8F#/	8a#X\J
=18	=18
8BL 8F# 8D 8BB\	16b\LL
.	16cc#X\JJ
8B 8F# 8D 8BB\	8b\L
8BJ 8F# 8D 8BB\	8bb\J
=19	=19
*rep	*
8AL 8AA\	8.aa\L
!LO:SIC:n=2:s=8c#:v	!
8g 8c 8A\	.
.	16gg\L
!LO:SIC:n=2:s=8c#:v	!
8gJ 8c 8A\	16ee\
.	16cc#X\JJ
=20	=20
8d\	8dd\
4d 4D\	8ddd\
.	8r
=21:|!|:	=21:|!|:
*>D	*>D
!LO:TX:a:t=P:problem=w źródle brak przedtaktu	!
8ryy	16gg\LL
.	16bb\JJ
=22	=22
8GL 8GG\	8.ddd\L
8g 8d 8B\	.
.	16eee\L
8gJ 8d 8B\	16ddd\
.	16ccc#X\JJ
!!LO:LB:g=original
=23	=23
*rep	*
!	!LO:TUP:a:problem=klamra łukowa
8GL 8GG\	24ddd\LL
.	24eee\
.	24fff#\JJ
8g 8d 8B\	8ggg\L
8gJ 8d 8B\	8ddd\J
*Xrep	*
=24	=24
*rep	*
8GL 8GG\	8.bb\L
8g 8d 8B\	.
.	16ccc\L
8gJ 8d 8B\	16bb\
.	16aa#X\JJ
*Xrep	*
=25	=25
*rep	*
!	!LO:TUP:a:problem=klamra łukowa
8GL 8GG\	24bb\LL
.	24aa#X\
.	24bb\JJ
8g 8d 8B\	8ddd\L
8gJ 8d 8B\	8gg\J
*Xrep	*
=26	=26
8cL 8F# 8D\	16ff#\LL
.	16dd\
8c 8F# 8D\	16ff#\
.	16aa\J
8BJ 8G 8D\	8gg\J
=27	=27
*rep	*rep
8cL 8F# 8D\	16ff#\LL
.	16dd\
8c 8F# 8D\	16ff#\
.	16aa\J
8BJ 8G 8D\	8gg\J
*Xrep	*Xrep
=28	=28
8cL 8F# 8D\	16.ff#\LL
.	32dd\K
8c 8F# 8D\	16.cc#X\
.	32dd\K
8c#XJ 8A 8G 8D\	16.aa\
.	32cc#\JJk
=29	=29
8d 8F# 8D\	8dd\
4d 4F# 4D\	4ddd\
!!LO:PB:g=original
=30:|!|:	=30:|!|:
*>E	*>E
!LO:TX:a:t=P:problem=w źródle przed i za grupą ósemkową trzy pionowe kropki	!
8DL 8DD/	16dd\LL
.	(>32ff#\L
.	32aa\JJJ)
8c 8F# 8D/	16.cccn\LL
.	32bb\K
8cJ 8F# 8D/	16.aa\
.	32gg\JJk
=31	=31
*rep	*
8DL 8DD/	16.ff#\LL
.	32ee\K
8c 8F# 8D/	16.dd\
.	32cc\K
8cJ 8F# 8D/	16.b\
.	32cc\JJk
*Xrep	*
=32	=32
8GL 8GG\	16dd\LL
.	(>32gg\L
.	32bb\JJJ)
8B 8G 8D\	16.ddd\LL
.	32ccc\K
8BJ 8G 8D\	16.bb\
.	32aa\JJk
=33	=33
*rep	*
.	8qaa/
8GL 8GG\	16.gg\LL
.	32ff#\K
8B 8G 8D\	16.gg\
.	32aa\K
8BJ 8G 8D\	16.bb\
.	32gg\JJk
*Xrep	*
=34	=34
!	!LO:N:vis=x
8CL 8CC/	4eee\
8A 8E 8C/	.
8AJ 8E 8C/	(>16ddd\LL
.	16ccc\JJ)
!!LO:LB:g=original
=35	=35
8GL 8GG\	16.bb\LL
.	32ggg\JJk
8B 8G 8D\	8bb\L
8BJ 8G 8D\	(>16aa\L
.	16gg\JJ)
=36	=36
8DL 8DD/	8.ff#\L
8c 8F# 8D/	.
.	16gg\L
8cJ 8F# 8D/	16gg#X\
.	16aa\JJ
=37	=37
8GL 8GG/	16aa#X\LL
.	16bb\
8B 8G 8D/	16ccc\
.	16ccc#X\
8BJ 8G 8D/	16ddd\
.	16ddd#X\JJ
=38	=38
8CL 8CC/	8.eee\L
8A 8E 8C/	.
.	16bb\L
8AJ 8E 8C/	16gg\
.	16ee\JJ
=39	=39
8EL 8EE/	8.ddd#X\L
8A#X 8E 8C#X/	.
.	16ccc\L
8A#J 8E 8C#/	16bb\
.	16aa\JJ
=40	=40
8B 8A 8F#X 8D#X\	16gg\LL
.	16ff#\JJ
4B 4A 4F# 4D#\	8bb\L
.	8dd#X\J
!!LO:LB:g=original
=41	=41
4B 4G 4E\	8.ee\L
.	16ee\Jk
8B 8G 8E\	(>16dd#X\LL
.	16ee\JJ)
=42	=42
8DL 8DD/	8dd\L
8c 8F# 8D/	16ff#\L
.	16dd\J
8cJ 8F# 8D/	8cccn\J
=43	=43
8GL 8GG\	16bb\LL
.	16ff#\
8B 8G 8D\	16gg\
.	16b\
8BJ 8G 8D\	16ee\
.	16dd\JJ
=44	=44
8DL 8DD/	8dd\L
8c 8F# 8D/	16ff#\L
.	16ee\
8cJ 8F# 8D/	16cc\
.	16a\JJ
=45	=45
8GL 8GG\	16.g/LL
!	!LO:N:vis=16
.	32a/JJk
8B 8G 8D\	4b\
8BJ 8G 8D\	.
=46	=46
8DL 8DD/	16cc\LL
.	16b\
8c 8F# 8D/	16a\
.	16ff#\
8cJ 8F# 8D/	16aa\
.	16gg\JJ
!!LO:LB:g=original
=47	=47
8GL 8GG\	16gg\LL
.	16aa\
8B 8G 8D\	16bb\
.	16ff#\
8BJ 8G 8D\	16gg\
.	16b\JJ
=48	=48
8DL 8DD\	16cc\LL
.	16b\
8c 8F# 8D\	16a\
.	16ee\
8cJ 8F# 8D\	16dd\
.	16f#\JJ
=49	=49
8B 8G\	8g/
4G 4GG/	4gg\
!	!LO:TX:b:Bi:t=Mazur. De. Capo
==:|!	==:|!
*-	*-
!!!system-decoration: {(s1,s2)}
!!!RDF**kern: > = above
!!!RDF**kern: < = below
!!!EED: Wojciech Jakubiak-Danek
!!!EEV: 2020-12-10
!!!ENC: Andrzej Kubiczek
!!!END: 2020-06-20
!!!YEC: Copyright 2022 Narodowy Instytut Fryderyka Chopina (https://polishscores.org)
!!!YEM: Licence CC BY 4.0 (https://creativecommons.org/licenses/by/4.0)
